public/logos/H4.svg

<?xml version="1.0" encoding="UTF-8"?>
<svg xmlns="http://www.w3.org/2000/svg" xmlns:xlink="http://www.w3.org/1999/xlink" width="141.66pt" height="59pt" viewBox="0 0 141.66 59" version="1.1">
<defs>
<clipPath id="clip1">
  <path d="M 51 5 L 141.660156 5 L 141.660156 59 L 51 59 Z M 51 5 "/>
</clipPath>
</defs>
<g id="surface1">
<g clip-path="url(#clip1)" clip-rule="nonzero">
<path style=" stroke:none;fill-rule:nonzero;fill:rgb(12.084961%,23.26355%,39.945984%);fill-opacity:1;" d="M 140.484375 17.234375 L 132.90625 17.234375 C 132.007812 17.234375 131.429688 17.746094 131.234375 18.710938 L 128.667969 34.058594 C 125.136719 37.269531 121.605469 37.269531 122.632812 31.167969 L 124.6875 18.648438 C 124.878906 17.683594 124.492188 17.167969 123.59375 17.167969 L 116.660156 17.167969 C 115.761719 17.167969 115.183594 17.683594 114.988281 18.648438 L 112.679688 32.324219 C 111.199219 41.121094 115.246094 44.207031 120.574219 44.207031 C 123.082031 44.207031 126.035156 43.046875 127.574219 40.992188 C 126.613281 47.285156 121.21875 52.550781 112.230469 48.765625 C 111.265625 48.378906 110.621094 48.636719 110.429688 49.726562 L 109.339844 55.507812 C 109.144531 56.34375 109.46875 56.984375 110.175781 57.304688 C 120.320312 62.378906 135.347656 55.761719 137.785156 41.507812 L 141.640625 18.648438 C 141.769531 17.746094 141.382812 17.234375 140.484375 17.234375 M 109.660156 19.097656 C 110.621094 18.070312 110.367188 17.296875 109.210938 17.296875 L 102.339844 17.234375 C 101.632812 17.234375 100.992188 17.492188 100.476562 18.070312 L 94.183594 24.425781 L 96.6875 6.574219 C 96.816406 5.546875 96.238281 5.03125 95.339844 5.226562 L 88.40625 6.445312 C 87.570312 6.640625 86.992188 7.152344 86.863281 8.050781 L 81.210938 42.085938 C 81.019531 43.046875 81.46875 43.5625 82.367188 43.5625 L 89.625 43.5625 C 90.523438 43.5625 91.101562 43.046875 91.230469 42.085938 L 92.066406 37.011719 Z M 80.761719 9.847656 C 80.890625 9.015625 80.699219 8.371094 79.992188 8.179688 C 73.121094 5.675781 59.828125 4.90625 56.554688 14.214844 C 51.351562 29.5 68.113281 28.085938 67.214844 32.582031 C 66.570312 35.40625 60.023438 35.40625 54.882812 33.867188 C 53.921875 33.542969 53.214844 33.992188 53.023438 35.023438 L 52.058594 40.863281 C 51.867188 41.699219 52.121094 42.277344 52.894531 42.535156 C 59.765625 45.167969 73.828125 45.746094 76.71875 36.113281 C 81.46875 20.1875 65.734375 22.886719 66.828125 17.554688 C 67.46875 14.601562 71.964844 13.960938 76.71875 14.988281 C 78.578125 15.371094 79.800781 15.113281 79.929688 14.085938 L 80.761719 9.847656 "/>
</g>
<path style=" stroke:none;fill-rule:nonzero;fill:rgb(96.672058%,55.331421%,9.178162%);fill-opacity:1;" d="M 38.894531 20.316406 L 35.296875 42.023438 C 35.105469 42.984375 35.554688 43.496094 36.453125 43.496094 L 43.390625 43.496094 C 44.289062 43.496094 44.800781 42.984375 44.996094 42.023438 L 48.847656 18.777344 C 49.039062 17.746094 48.527344 17.296875 47.5625 17.492188 L 40.433594 18.777344 C 39.601562 18.902344 39.085938 19.417969 38.894531 20.316406 M 35.105469 8.566406 C 35.296875 7.601562 34.847656 7.089844 33.949219 7.089844 L 26.050781 7.089844 C 25.152344 7.089844 24.640625 7.601562 24.445312 8.566406 L 22.328125 21.214844 L 18.667969 21.214844 C 17.769531 21.214844 17.191406 21.730469 16.996094 22.691406 L 15.710938 30.335938 C 15.585938 31.296875 15.96875 31.8125 16.867188 31.8125 L 20.527344 31.8125 L 18.792969 42.085938 C 18.601562 43.046875 19.050781 43.5625 19.949219 43.5625 L 27.847656 43.5625 C 28.75 43.5625 29.261719 43.046875 29.453125 42.085938 Z M 16.226562 8.628906 C 16.417969 7.601562 15.90625 7.089844 14.941406 7.28125 L 6.851562 8.695312 C 6.015625 8.886719 5.4375 9.398438 5.375 10.296875 L 0.0429688 42.023438 C -0.148438 42.984375 0.300781 43.496094 1.199219 43.496094 L 9.035156 43.496094 C 9.933594 43.496094 10.445312 42.984375 10.640625 42.023438 L 16.226562 8.628906 "/>
<path style=" stroke:none;fill-rule:nonzero;fill:rgb(12.084961%,23.26355%,39.945984%);fill-opacity:1;" d="M 105.742188 43.433594 C 106.835938 43.433594 107.347656 42.726562 106.964844 41.699219 L 103.175781 33.160156 C 102.726562 32.261719 101.953125 32.261719 101.246094 33.03125 L 97.332031 36.820312 C 96.753906 37.460938 96.558594 38.167969 96.882812 38.875 L 98.742188 42.46875 C 99.066406 43.113281 99.515625 43.433594 100.21875 43.433594 L 105.742188 43.433594 "/>
<path style=" stroke:none;fill-rule:nonzero;fill:rgb(96.673584%,55.361938%,8.892822%);fill-opacity:1;" d="M 49.167969 7.664062 C 49.167969 7.664062 48.269531 7.730469 47.433594 8.050781 C 43.648438 9.65625 43.519531 13.1875 43.839844 13.511719 C 44.222656 13.832031 44.480469 13.574219 44.738281 13.574219 C 45.636719 13.574219 46.535156 12.929688 47.179688 12.355469 C 48.078125 11.519531 48.65625 10.554688 48.976562 9.335938 C 49.105469 8.820312 49.167969 7.601562 49.167969 7.664062 "/>
<path style=" stroke:none;fill-rule:nonzero;fill:rgb(16.342163%,21.06781%,28.126526%);fill-opacity:1;" d="M 49.167969 5.867188 C 48.269531 3.941406 46.726562 2.59375 44.996094 1.4375 C 43.96875 0.730469 42.875 0.152344 41.589844 0.0234375 C 39.855469 -0.167969 38.957031 0.792969 39.40625 2.402344 C 39.601562 3.042969 39.921875 3.621094 40.308594 4.199219 C 40.5 4.457031 40.886719 4.96875 41.078125 5.226562 C 41.527344 5.804688 41.398438 5.226562 40.886719 4.390625 C 40.5 3.75 39.855469 2.851562 39.730469 1.886719 C 39.601562 0.988281 40.113281 0.410156 41.078125 0.472656 C 41.71875 0.472656 42.363281 0.667969 42.941406 0.988281 C 44.480469 1.695312 45.894531 2.722656 47.050781 3.941406 C 47.886719 4.839844 48.589844 5.804688 48.847656 7.023438 C 48.976562 7.664062 48.976562 8.179688 48.847656 8.757812 C 48.589844 9.976562 48.078125 11.132812 47.179688 12.097656 C 46.601562 12.738281 45.574219 13.253906 44.929688 13.316406 C 44.480469 13.382812 44.289062 13.316406 44.289062 13.511719 C 44.289062 13.765625 44.417969 13.832031 44.671875 13.832031 C 45.316406 13.832031 45.894531 13.636719 46.472656 13.382812 C 48.527344 12.226562 50.453125 8.566406 49.167969 5.867188 "/>
<path style=" stroke:none;fill-rule:nonzero;fill:rgb(16.342163%,21.06781%,28.126526%);fill-opacity:1;" d="M 43.519531 11.96875 C 43.390625 13.1875 43.96875 14.28125 43.773438 14.085938 C 43.324219 13.511719 43.195312 12.867188 43.261719 12.097656 C 43.324219 10.363281 44.289062 9.078125 45.507812 8.050781 C 46.34375 7.472656 46.726562 7.089844 47.949219 6.765625 C 48.335938 6.703125 48.785156 6.445312 48.589844 6.960938 C 48.527344 7.152344 48.460938 7.214844 48.078125 7.34375 C 46.214844 7.792969 44.996094 8.820312 44.03125 10.425781 C 43.773438 10.878906 43.582031 11.390625 43.519531 11.96875 "/>
<path style=" stroke:none;fill-rule:nonzero;fill:rgb(96.673584%,55.361938%,8.892822%);fill-opacity:1;" d="M 52.828125 4.710938 C 52.699219 4.199219 51.609375 4.457031 51.480469 4.457031 C 50.644531 4.582031 50.003906 5.609375 50.195312 6.125 C 50.453125 6.316406 50.710938 6.894531 51.289062 6.832031 C 51.929688 6.765625 52.378906 6.253906 52.445312 5.675781 C 52.445312 5.417969 52.316406 5.097656 52.507812 4.839844 C 52.636719 4.648438 52.765625 4.648438 52.828125 4.710938 "/>
<path style=" stroke:none;fill-rule:nonzero;fill:rgb(16.342163%,21.06781%,28.126526%);fill-opacity:1;" d="M 45.378906 9.785156 C 46.023438 10.234375 46.601562 10.8125 47.304688 11.261719 C 47.433594 11.328125 47.5 11.453125 47.371094 11.582031 C 47.242188 11.777344 47.113281 11.648438 46.984375 11.582031 C 46.34375 11.070312 45.765625 10.554688 45.378906 9.785156 "/>
<path style=" stroke:none;fill-rule:nonzero;fill:rgb(16.342163%,21.06781%,28.126526%);fill-opacity:1;" d="M 46.726562 8.566406 C 47.242188 8.886719 47.691406 9.335938 48.207031 9.65625 C 48.269531 9.71875 48.398438 9.785156 48.335938 9.914062 C 48.269531 10.042969 48.078125 10.042969 48.011719 9.976562 C 47.433594 9.59375 46.984375 9.207031 46.726562 8.566406 "/>
<path style=" stroke:none;fill-rule:nonzero;fill:rgb(16.342163%,21.06781%,28.126526%);fill-opacity:1;" d="M 44.417969 11.328125 C 44.929688 11.648438 45.378906 12.097656 45.894531 12.417969 C 45.957031 12.480469 46.085938 12.546875 46.023438 12.675781 C 45.957031 12.804688 45.765625 12.804688 45.703125 12.738281 C 45.125 12.355469 44.671875 11.90625 44.417969 11.328125 "/>
</g>
</svg>

<svg xmlns="http://www.w3.org/2000/svg" width="188.88" height="59pt" viewBox="0 0 141.66 59"><defs><clipPath id="a"><path d="M51 5h90.66v54H51Zm0 0"/></clipPath></defs><g clip-path="url(#a)"><path d="M140.484 17.234h-7.578c-.898 0-1.476.512-1.672 1.477l-2.566 15.348c-3.531 3.21-7.063 3.21-6.035-2.891l2.055-12.52c.19-.964-.196-1.48-1.094-1.48h-6.934c-.898 0-1.476.516-1.672 1.48l-2.308 13.676c-1.48 8.797 2.566 11.883 7.894 11.883 2.508 0 5.461-1.16 7-3.215-.96 6.293-6.355 11.559-15.344 7.774-.964-.387-1.609-.13-1.8.96l-1.09 5.782c-.195.836.129 1.476.836 1.797 10.144 5.074 25.172-1.543 27.61-15.797l3.855-22.86c.129-.902-.258-1.414-1.157-1.414m-30.824 1.864c.961-1.028.707-1.801-.45-1.801l-6.87-.063c-.707 0-1.348.258-1.863.836l-6.293 6.356 2.504-17.852c.128-1.027-.45-1.543-1.348-1.347l-6.934 1.218c-.836.196-1.414.707-1.543 1.606l-5.652 34.035c-.191.96.258 1.477 1.156 1.477h7.258c.898 0 1.477-.516 1.605-1.477l.836-5.074Zm-28.898-9.25c.129-.832-.063-1.477-.77-1.668-6.87-2.504-20.164-3.274-23.437 6.035-5.203 15.285 11.558 13.87 10.66 18.367-.645 2.824-7.192 2.824-12.332 1.285-.961-.324-1.668.125-1.86 1.156l-.964 5.84c-.192.836.062 1.414.836 1.672 6.87 2.633 20.933 3.211 23.824-6.422 4.75-15.925-10.985-13.226-9.89-18.558.64-2.953 5.136-3.594 9.89-2.567 1.86.383 3.082.125 3.21-.902z" style="stroke:none;fill-rule:nonzero;fill:#1f3b66;fill-opacity:1"/></g><path d="m38.895 20.316-3.598 21.707c-.192.961.258 1.473 1.156 1.473h6.938c.898 0 1.41-.512 1.605-1.473l3.852-23.246c.191-1.03-.32-1.48-1.285-1.285l-7.13 1.285c-.831.125-1.347.641-1.538 1.54m-3.79-11.75c.192-.965-.257-1.477-1.156-1.477h-7.898c-.899 0-1.41.512-1.606 1.476l-2.117 12.649h-3.66c-.898 0-1.477.515-1.672 1.476l-1.285 7.645c-.125.96.258 1.477 1.156 1.477h3.66l-1.734 10.273c-.191.96.258 1.477 1.156 1.477h7.899c.902 0 1.414-.516 1.605-1.477Zm-18.878.062c.191-1.027-.32-1.54-1.286-1.348l-8.09 1.414c-.835.192-1.413.703-1.476 1.602L.043 42.023c-.191.961.258 1.473 1.156 1.473h7.836c.899 0 1.41-.512 1.606-1.473z" style="stroke:none;fill-rule:nonzero;fill:#f78d17;fill-opacity:1"/><path d="M105.742 43.434c1.094 0 1.606-.707 1.223-1.735l-3.79-8.539c-.448-.898-1.222-.898-1.929-.129l-3.914 3.79c-.578.64-.773 1.347-.45 2.054l1.86 3.594c.324.644.774.965 1.477.965z" style="stroke:none;fill-rule:nonzero;fill:#1f3b66;fill-opacity:1"/><path d="M49.168 7.664s-.898.066-1.734.387c-3.786 1.605-3.914 5.137-3.594 5.46.383.321.64.063.898.063.899 0 1.797-.644 2.442-1.219.898-.835 1.476-1.8 1.797-3.02.128-.515.191-1.733.191-1.67" style="stroke:none;fill-rule:nonzero;fill:#f78d17;fill-opacity:1"/><path d="M49.168 5.867c-.898-1.926-2.441-3.273-4.172-4.43C43.97.73 42.875.153 41.59.024c-1.735-.191-2.633.77-2.184 2.38.196.64.516 1.218.903 1.796.191.258.578.77.77 1.028.448.578.32 0-.192-.836-.387-.641-1.032-1.54-1.157-2.504-.128-.899.383-1.477 1.348-1.414.64 0 1.285.195 1.863.515a13.5 13.5 0 0 1 4.11 2.953c.836.899 1.539 1.864 1.797 3.082.129.641.129 1.157 0 1.735-.258 1.219-.77 2.375-1.668 3.34-.578.64-1.606 1.156-2.25 1.218-.45.067-.64 0-.64.196 0 .254.128.32.382.32.644 0 1.223-.195 1.8-.45 2.055-1.155 3.981-4.816 2.696-7.515" style="stroke:none;fill-rule:nonzero;fill:#2a3648;fill-opacity:1"/><path d="M43.52 11.969c-.13 1.219.449 2.312.253 2.117-.449-.574-.578-1.219-.511-1.988.062-1.735 1.027-3.02 2.246-4.047.836-.578 1.219-.961 2.441-1.285.387-.063.836-.32.64.195-.062.191-.128.254-.51.383-1.864.449-3.083 1.476-4.048 3.082a4 4 0 0 0-.511 1.543" style="stroke:none;fill-rule:nonzero;fill:#2a3648;fill-opacity:1"/><path d="M52.828 4.71c-.129-.51-1.219-.253-1.348-.253-.835.125-1.476 1.152-1.285 1.668.258.191.516.77 1.094.707a1.304 1.304 0 0 0 1.156-1.156c0-.258-.129-.578.063-.836.129-.192.258-.192.32-.13" style="stroke:none;fill-rule:nonzero;fill:#f78d17;fill-opacity:1"/><path d="M45.379 9.785c.644.45 1.223 1.027 1.926 1.477.129.066.195.191.066.32-.129.195-.258.066-.387 0-.64-.512-1.218-1.027-1.605-1.797M46.727 8.566c.515.32.964.77 1.48 1.09.063.063.191.13.129.258-.066.129-.258.129-.324.063-.578-.383-1.028-.77-1.285-1.41M44.418 11.328c.512.32.96.77 1.477 1.09.062.062.19.129.128.258-.066.129-.257.129-.32.062-.578-.383-1.031-.832-1.285-1.41" style="stroke:none;fill-rule:nonzero;fill:#2a3648;fill-opacity:1"/></svg>
